packages/kaspersky-hexa-ui-icons/src/iconsSVGs/16/Pcn.svg

<svg width="16" height="16" viewBox="0 0 16 16" fill="none" xmlns="http://www.w3.org/2000/svg">
<path d="M10.9957 2.00847C10.9957 2.4221 10.6604 2.75741 10.2468 2.75741C9.83317 2.75741 9.49785 2.4221 9.49785 2.00847C9.49785 1.59484 9.83317 1.25952 10.2468 1.25952C10.6604 1.25952 10.9957 1.59484 10.9957 2.00847Z" fill="black"/>
<path d="M3.50629 2.65845C3.03801 2.65845 2.6584 3.03807 2.6584 3.50634V12.4937C2.6584 12.962 3.03801 13.3416 3.50629 13.3416C3.86527 13.3416 4.15629 13.6326 4.15629 13.9916C4.15629 14.3506 3.86527 14.6416 3.50629 14.6416C2.32004 14.6416 1.3584 13.6799 1.3584 12.4937V3.50634C1.3584 2.3201 2.32004 1.35845 3.50629 1.35845H7.99996C8.35894 1.35845 8.64996 1.64947 8.64996 2.00845C8.64996 2.36744 8.35894 2.65845 7.99996 2.65845H3.50629Z" fill="black"/>
<path d="M11.8436 2.00845C11.8436 1.64947 12.1346 1.35845 12.4936 1.35845C13.6799 1.35845 14.6415 2.3201 14.6415 3.50634V12.4937C14.6415 13.6799 13.6799 14.6416 12.4936 14.6416H7.99996C7.64097 14.6416 7.34996 14.3506 7.34996 13.9916C7.34996 13.6326 7.64097 13.3416 7.99996 13.3416H12.4936C12.9619 13.3416 13.3415 12.962 13.3415 12.4937V3.50634C13.3415 3.03807 12.9619 2.65845 12.4936 2.65845C12.1346 2.65845 11.8436 2.36744 11.8436 2.00845Z" fill="black"/>
<path fill-rule="evenodd" clip-rule="evenodd" d="M5.85207 5.00427C5.85207 4.64529 6.14308 4.35427 6.50207 4.35427H8.37443C9.76749 4.35427 10.8968 5.48357 10.8968 6.87663C10.8968 8.26969 9.76749 9.39899 8.37443 9.39899H7.15207V10.9958C7.15207 11.3548 6.86105 11.6458 6.50207 11.6458C6.14308 11.6458 5.85207 11.3548 5.85207 10.9958V5.00427ZM7.15207 8.099V5.65427H8.37443C9.04952 5.65427 9.59679 6.20154 9.59679 6.87663C9.59679 7.55173 9.04952 8.099 8.37443 8.099H7.15207Z" fill="black"/>
<path d="M5.75315 14.7405C6.16678 14.7405 6.50209 14.4052 6.50209 13.9916C6.50209 13.578 6.16678 13.2426 5.75315 13.2426C5.33952 13.2426 5.0042 13.578 5.0042 13.9916C5.0042 14.4052 5.33952 14.7405 5.75315 14.7405Z" fill="black"/>
</svg>

<svg xmlns="http://www.w3.org/2000/svg" width="16" height="16" fill="none" viewBox="0 0 16 16"><path fill="#000" fill-rule="evenodd" d="M10.2468 2.7574a.749.749 0 1 0 0-1.4978.749.749 0 0 0 0 1.4978m-6.7405-.099a.848.848 0 0 0-.8479.848v8.9873c0 .4683.3796.8479.8479.8479a.65.65 0 1 1 0 1.3c-1.1863 0-2.1479-.9617-2.1479-2.1479V3.5063c0-1.1862.9616-2.1478 2.1479-2.1478H8a.65.65 0 1 1 0 1.3zm8.3373-.65a.65.65 0 0 1 .65-.65c1.1863 0 2.1479.9617 2.1479 2.148v8.9873c0 1.1862-.9616 2.1479-2.1479 2.1479H8a.65.65 0 1 1 0-1.3h4.4936a.848.848 0 0 0 .8479-.8479V3.5063a.848.848 0 0 0-.8479-.8478.65.65 0 0 1-.65-.65M5.8521 5.0044a.65.65 0 0 1 .65-.65h1.8723c1.3931 0 2.5224 1.1293 2.5224 2.5223S9.7675 9.399 8.3744 9.399H7.1521v1.5968a.65.65 0 1 1-1.3 0zm1.3 3.0947V5.6543h1.2223c.6751 0 1.2224.5472 1.2224 1.2223S9.0495 8.099 8.3744 8.099zm-.65 5.8926a.749.749 0 1 1-1.4979 0 .749.749 0 0 1 1.4979 0"/></svg>
